X:1
T:Title
%%score { ( 1 3 4 ) | ( 2 5 ) }
L:1/8
M:4/4
K:C
V:1 treble nm="Grand Piano"
V:3 treble 
V:4 treble 
V:2 bass 
V:5 bass 
V:1
 z4 z2 z[Q:1/4=100] [EG] | [EG]2 E>D C2 E[EG] | c2 B>A A [EG]2 [EG] | [EG]2 E>D C2 E[EF] | %4
 [EG]A[G,EG][G,CE] z2 z G | [CEG]2 E>D C2 EG | c2 B>A A [EG]2 [EG] | [Ge]2 [Gd][Gc] d c2 A | %8
 G2 B>B [Ec]4 | [EG]2 [EG]>[EA] [EG] [Ge]3 | c2 B>A A [EG]3 | [EG]2 [EG]>[FA] [EG][Ec]Bc | %12
 d>e d>e d4 | [EG]2 [EG]>[FA] [EG] [Ge]3 | c2 B>A A [EG]3 | [Ge]2 [Gd][Gc] d c2 A | G2 BB [Ec]4 |] %17
V:2
 z4 z2 z [C,C] | [C,C]2 [C,G,C]>[C,F,B,] [C,E,]2 [C,G,][C,G,] | %2
 [F,A,F]2 [F,A,F]>[F,A,F] [F,A,F] [C,C]2 [C,C] | [C,C]2 [C,C]>[C,B,C] C,2 [C,C][C,C] | %4
 z FC,E, G,2 z E | C,2 [C,G,C]>[C,F,B,] [C,E,]2 [C,G,]2 | %6
 [F,A,F]2 [F,A,F]>[F,A,F] [F,A,F] [C,C]2 [C,C] | %7
 [C,C]2 [D,C][E,C][K:treble] [F,A,F] [F,A,F]2 [F,A,F] | [G,E]2 [G,F]>[G,F][K:bass] [C,G,]4 | %9
 [C,C]2 [C,C]>[C,C] [C,C] [C,G,]3 | [F,A,F]2 [F,A,F]>[F,A,F] [F,CF] [C,C]3 | %11
 [C,C]2 [C,C]>[C,C] [C,C][C,C][K:treble][G,G][G,G] | [G,B,G]>[G,B,G] [G,B,G]>[G,B,G] [G,B,G]4 | %13
 [C,C]2 [C,C]>[C,C] [C,C] [C,G,]3 | [F,A,F]2 [F,A,F]>[F,A,F] [F,CF] [C,C]3 | %15
 [C,C]2 [D,C][E,C][K:treble] [F,A,F] [F,A,F]2 [F,A,F] | [G,E]2 [G,D][G,F][K:bass] [C,G,]4 |] %17
V:3
 x8 | x8 | x8 | x8 | z4 [B,D]4 | x8 | x8 | x8 | x8 | x8 | x8 | x8 | x8 | x8 | x8 | x8 | x8 |] %17
V:4
 x8 | x8 | x8 | x8 | z4 z2 C2 | x8 | x8 | x8 | x8 | x8 | x8 | x8 | x8 | x8 | x8 | x8 | x8 |] %17
V:5
 x8 | x8 | x8 | x8 | [C,G,]2 z2 z2 C,2 | x8 | x8 | x4[K:treble] x4 | x4[K:bass] x4 | x8 | x8 | %11
 x6[K:treble] x2 | x8 | x8 | x8 | x4[K:treble] x4 | x4[K:bass] x4 |] %17

